static/icons/plugins-icon.svg

<svg width="32" height="32" viewBox="0 0 32 32" fill="none" xmlns="http://www.w3.org/2000/svg"><mask id="path-1-outside-1_425_3508" maskUnits="userSpaceOnUse" x="0" y="1" width="30" height="30" fill="#000"><path fill="#fff" d="M0 1h30v30H0z"/><path d="M16.7969 3c2.184 0 3.9579 1.75038 3.998 3.9248h5.6221c1.1044.00018 2 .89554 2 2v3.9199c-2.4925.2834-4.4287 2.3985-4.4287 4.9668.0001 2.5682 1.9363 4.6835 4.4287 4.9668v4.1465c-.0002 1.1043-.8957 1.9998-2 2h-3.665c-.3233-2.4491-2.4178-4.3397-4.9551-4.3398-2.5375 0-4.6318 1.8906-4.9551 4.3398H8.41699c-1.10448 0-1.99985-.8956-2-2v-5.1553c-.13708.0142-.27615.0225-.41699.0225-2.20905 0-3.99986-1.791-4-4 0-2.2091 1.79086-4 4-4 .14082 0 .27992.0073.41699.0215V8.9248c0-1.10456.89543-2 2-2h4.38181C12.8389 4.75049 14.613 3.0002 16.7969 3Z"/></mask><path d="M16.7969 3V1.5h-.0002l.0002 1.5Zm3.998 3.9248-1.4997.02767.0271 1.47233h1.4726v-1.5Zm5.6221 0 .0002-1.5h-.0002v1.5Zm2 2h1.5-1.5Zm0 3.9199.1694 1.4904 1.3306-.1512v-1.3392h-1.5Zm-4.4287 4.9668h-1.5v.0001l1.5-.0001Zm4.4287 4.9668h1.5v-1.3391l-1.3306-.1513-.1694 1.4904Zm0 4.1465 1.5.0002v-.0002h-1.5Zm-2 2v1.5h.0002l-.0002-1.5Zm-3.665 0-1.4871.1963.172 1.3037h1.3151v-1.5Zm-4.9551-4.3398.0001-1.5h-.0001v1.5Zm-4.9551 4.3398v1.5h1.315l.1721-1.3037-1.4871-.1963Zm-6.42481-2h-1.5v.0002l1.5-.0002Zm0-5.1553h1.5v-1.6634l-1.65457.1714.15457 1.492ZM2 17.792H.5v.0001L2 17.792Zm4.41699-3.9785-.15456 1.492 1.65456.1714v-1.6634h-1.5Zm2-6.8887v-1.5 1.5Zm4.38181 0v1.5h1.4726l.0272-1.47234-1.4998-.02766ZM16.7969 3v1.5c1.3642 0 2.4732 1.0934 2.4983 2.45247l1.4997-.02767 1.4998-.02766C22.2395 3.90736 19.8007 1.5 16.7969 1.5V3Zm3.998 3.9248v1.5h5.6221v-3h-5.6221v1.5Zm5.6221 0-.0002 1.5c.2764.00005.5002.22421.5002.5h3c0-1.93312-1.5673-3.49969-3.4998-3.5l-.0002 1.5Zm2 2h-1.5v3.9199h3V8.9248h-1.5Zm0 3.9199-.1694-1.4904c-3.2417.3686-5.7593 3.1172-5.7593 6.4572h3c0-1.7965 1.3548-3.2782 3.0981-3.4764l-.1694-1.4904Zm-4.4287 4.9668-1.5.0001c.0002 3.3399 2.5177 6.0886 5.7592 6.4571l.1695-1.4904.1694-1.4904c-1.7432-.1982-3.098-1.6799-3.0981-3.4765l-1.5.0001Zm4.4287 4.9668h-1.5v4.1465h3v-4.1465h-1.5Zm0 4.1465-1.5-.0002c0 .276-.2241.5002-.5002.5002l.0002 1.5.0002 1.5c1.9326-.0003 3.4995-1.5672 3.4998-3.4998l-1.5-.0002Zm-2 2v-1.5h-3.665v3h3.665v-1.5Zm-3.665 0 1.4871-.1963c-.4204-3.1846-3.1417-5.6433-6.4421-5.6435l-.0001 1.5-.0001 1.5c1.7742.0001 3.2419 1.3225 3.4681 3.0361l1.4871-.1963Zm-4.9551-4.3398v-1.5c-3.3008 0-6.0219 2.4589-6.4422 5.6435l1.4871.1963 1.4871.1963c.2262-1.7138 1.6937-3.0361 3.468-3.0361v-1.5Zm-4.9551 4.3398v-1.5H8.41699v3h4.42481v-1.5Zm-4.42481 0v-1.5c-.27585 0-.49996-.2238-.5-.5002l-1.5.0002-1.5.0002c.00026 1.9325 1.5669 3.4998 3.5 3.4998v-1.5Zm-2-2h1.5v-5.1553h-3v5.1553h1.5Zm0-5.1553-.15457-1.492c-.0931.0097-.18011.0145-.26242.0145v3c.19938 0 .39049-.0117.57157-.0305l-.15458-1.492ZM6 21.792v-1.5c-1.38053 0-2.49991-1.1193-2.5-2.5001L2 17.792l-1.5.0001C.500193 20.8294 2.96243 23.292 6 23.292v-1.5Zm-4-4h1.5c0-1.3807 1.11929-2.5 2.5-2.5v-3c-3.03757 0-5.5 2.4624-5.5 5.5H2Zm4-4v1.5c.08905 0 .17656.0046.26243.0135l.15456-1.492.15456-1.492C6.38329 12.302 6.1926 12.292 6 12.292v1.5Zm.41699.0215h1.5V8.9248h-3v4.8887h1.5Zm0-4.8887h1.5c0-.27614.22386-.5.5-.5v-3c-1.93299 0-3.5 1.56701-3.5 3.5h1.5Zm2-2v1.5h4.38181v-3H8.41699v1.5Zm4.38181 0 1.4998.02766c.025-1.35881 1.1341-2.45234 2.4984-2.45246L16.7969 3l-.0002-1.5c-3.0034.00027-5.4425 2.40734-5.4976 5.39715l1.4997.02765Z" fill="#3A3C49" mask="url(#path-1-outside-1_425_3508)"/></svg>

<svg width="32" height="32" viewBox="0 0 32 32" fill="none" xmlns="http://www.w3.org/2000/svg">
<mask id="path-1-outside-1_881_8777" maskUnits="userSpaceOnUse" x="0" y="1" width="30" height="30" fill="black">
<rect fill="white" y="1" width="30" height="30"/>
<path d="M16.7969 3C18.9809 3 20.7548 4.75038 20.7949 6.9248H26.417C27.5214 6.92498 28.417 7.82034 28.417 8.9248V12.8447C25.9245 13.1281 23.9883 15.2432 23.9883 17.8115C23.9884 20.3797 25.9246 22.495 28.417 22.7783V26.9248C28.4168 28.0291 27.5213 28.9246 26.417 28.9248H22.752C22.4287 26.4757 20.3342 24.5851 17.7969 24.585C15.2594 24.585 13.1651 26.4756 12.8418 28.9248H8.41699C7.31251 28.9248 6.41714 28.0292 6.41699 26.9248V21.7695C6.27991 21.7837 6.14084 21.792 6 21.792C3.79095 21.792 2.00014 20.001 2 17.792C2 15.5829 3.79086 13.792 6 13.792C6.14082 13.792 6.27992 13.7993 6.41699 13.8135V8.9248C6.41699 7.82024 7.31242 6.9248 8.41699 6.9248H12.7988C12.8389 4.75049 14.613 3.0002 16.7969 3Z"/>
</mask>
<path d="M16.7969 3L16.7969 1.5L16.7967 1.5L16.7969 3ZM20.7949 6.9248L19.2952 6.95247L19.3223 8.4248H20.7949V6.9248ZM26.417 6.9248L26.4172 5.4248H26.417V6.9248ZM28.417 8.9248L29.917 8.9248V8.9248L28.417 8.9248ZM28.417 12.8447L28.5864 14.3351L29.917 14.1839V12.8447H28.417ZM23.9883 17.8115L22.4883 17.8115L22.4883 17.8116L23.9883 17.8115ZM28.417 22.7783H29.917V21.4392L28.5864 21.2879L28.417 22.7783ZM28.417 26.9248L29.917 26.925V26.9248H28.417ZM26.417 28.9248L26.417 30.4248L26.4172 30.4248L26.417 28.9248ZM22.752 28.9248L21.2649 29.1211L21.4369 30.4248H22.752V28.9248ZM17.7969 24.585L17.797 23.085H17.7969V24.585ZM12.8418 28.9248V30.4248H14.1568L14.3289 29.1211L12.8418 28.9248ZM6.41699 26.9248L4.91699 26.9248L4.91699 26.925L6.41699 26.9248ZM6.41699 21.7695H7.91699V20.1061L6.26242 20.2775L6.41699 21.7695ZM2 17.792L0.5 17.792L0.5 17.7921L2 17.792ZM6.41699 13.8135L6.26243 15.3055L7.91699 15.4769V13.8135H6.41699ZM8.41699 6.9248L8.41699 5.4248L8.41699 5.4248L8.41699 6.9248ZM12.7988 6.9248V8.4248H14.2714L14.2986 6.95246L12.7988 6.9248ZM16.7969 3V4.5C18.1611 4.5 19.2701 5.5934 19.2952 6.95247L20.7949 6.9248L22.2947 6.89714C22.2395 3.90736 19.8007 1.5 16.7969 1.5V3ZM20.7949 6.9248V8.4248H26.417V6.9248V5.4248H20.7949V6.9248ZM26.417 6.9248L26.4168 8.4248C26.6932 8.42485 26.917 8.64901 26.917 8.9248L28.417 8.9248L29.917 8.9248C29.917 6.99168 28.3497 5.42511 26.4172 5.4248L26.417 6.9248ZM28.417 8.9248H26.917V12.8447H28.417H29.917V8.9248H28.417ZM28.417 12.8447L28.2476 11.3543C25.0059 11.7229 22.4883 14.4715 22.4883 17.8115L23.9883 17.8115L25.4883 17.8115C25.4883 16.015 26.8431 14.5333 28.5864 14.3351L28.417 12.8447ZM23.9883 17.8115L22.4883 17.8116C22.4885 21.1515 25.006 23.9002 28.2475 24.2687L28.417 22.7783L28.5864 21.2879C26.8432 21.0897 25.4884 19.608 25.4883 17.8114L23.9883 17.8115ZM28.417 22.7783H26.917V26.9248H28.417H29.917V22.7783H28.417ZM28.417 26.9248L26.917 26.9246C26.917 27.2006 26.6929 27.4248 26.4168 27.4248L26.417 28.9248L26.4172 30.4248C28.3498 30.4245 29.9167 28.8576 29.917 26.925L28.417 26.9248ZM26.417 28.9248V27.4248H22.752V28.9248V30.4248H26.417V28.9248ZM22.752 28.9248L24.2391 28.7285C23.8187 25.5439 21.0974 23.0852 17.797 23.085L17.7969 24.585L17.7968 26.085C19.571 26.0851 21.0387 27.4075 21.2649 29.1211L22.752 28.9248ZM17.7969 24.585V23.085C14.4961 23.085 11.775 25.5439 11.3547 28.7285L12.8418 28.9248L14.3289 29.1211C14.5551 27.4073 16.0226 26.085 17.7969 26.085V24.585ZM12.8418 28.9248V27.4248H8.41699V28.9248V30.4248H12.8418V28.9248ZM8.41699 28.9248V27.4248C8.14114 27.4248 7.91703 27.201 7.91699 26.9246L6.41699 26.9248L4.91699 26.925C4.91725 28.8575 6.48389 30.4248 8.41699 30.4248V28.9248ZM6.41699 26.9248H7.91699V21.7695H6.41699H4.91699V26.9248H6.41699ZM6.41699 21.7695L6.26242 20.2775C6.16932 20.2872 6.08231 20.292 6 20.292V21.792V23.292C6.19938 23.292 6.39049 23.2803 6.57157 23.2615L6.41699 21.7695ZM6 21.792V20.292C4.61947 20.292 3.50009 19.1727 3.5 17.7919L2 17.792L0.5 17.7921C0.500193 20.8294 2.96243 23.292 6 23.292V21.792ZM2 17.792H3.5C3.5 16.4113 4.61929 15.292 6 15.292V13.792V12.292C2.96243 12.292 0.5 14.7544 0.5 17.792H2ZM6 13.792V15.292C6.08905 15.292 6.17656 15.2966 6.26243 15.3055L6.41699 13.8135L6.57155 12.3215C6.38329 12.302 6.1926 12.292 6 12.292V13.792ZM6.41699 13.8135H7.91699V8.9248H6.41699H4.91699V13.8135H6.41699ZM6.41699 8.9248H7.91699C7.91699 8.64866 8.14085 8.4248 8.41699 8.4248L8.41699 6.9248L8.41699 5.4248C6.484 5.4248 4.91699 6.99181 4.91699 8.9248H6.41699ZM8.41699 6.9248V8.4248H12.7988V6.9248V5.4248H8.41699V6.9248ZM12.7988 6.9248L14.2986 6.95246C14.3236 5.59365 15.4327 4.50012 16.797 4.5L16.7969 3L16.7967 1.5C13.7933 1.50027 11.3542 3.90734 11.2991 6.89715L12.7988 6.9248Z" fill="#356FED" mask="url(#path-1-outside-1_881_8777)"/>
</svg>
